symbols/web/speaker/materialsymbolssharp/speaker_wght500fill1_40px.svg

<svg xmlns="http://www.w3.org/2000/svg" height="40" width="40"><path d="M8.042 36.958V3.042h23.916v33.916Zm12-21.958q1.333 0 2.27-.938.938-.937.938-2.312 0-1.333-.938-2.271-.937-.937-2.27-.937-1.375 0-2.313.937-.937.938-.937 2.271 0 1.375.937 2.312.938.938 2.313.938ZM20 31.792q2.833 0 4.812-1.98 1.98-1.979 1.98-4.812t-1.98-4.812q-1.979-1.98-4.812-1.98t-4.813 1.98Q13.208 22.167 13.208 25t1.979 4.812q1.98 1.98 4.813 1.98ZM20 29q-1.667 0-2.833-1.167Q16 26.667 16 25q0-1.667 1.167-2.833Q18.333 21 20 21q1.667 0 2.833 1.167Q24 23.333 24 25q0 1.667-1.167 2.833Q21.667 29 20 29Z"/></svg>

<svg xmlns="http://www.w3.org/2000/svg" height="40" width="40"><path d="M8.042 36.958V3.042H31.958V36.958ZM20.042 15Q21.375 15 22.312 14.062Q23.25 13.125 23.25 11.75Q23.25 10.417 22.312 9.479Q21.375 8.542 20.042 8.542Q18.667 8.542 17.729 9.479Q16.792 10.417 16.792 11.75Q16.792 13.125 17.729 14.062Q18.667 15 20.042 15ZM20 31.792Q22.833 31.792 24.812 29.812Q26.792 27.833 26.792 25Q26.792 22.167 24.812 20.188Q22.833 18.208 20 18.208Q17.167 18.208 15.187 20.188Q13.208 22.167 13.208 25Q13.208 27.833 15.187 29.812Q17.167 31.792 20 31.792ZM20 29Q18.333 29 17.167 27.833Q16 26.667 16 25Q16 23.333 17.167 22.167Q18.333 21 20 21Q21.667 21 22.833 22.167Q24 23.333 24 25Q24 26.667 22.833 27.833Q21.667 29 20 29Z"/></svg>
